src/amo/components/CategoryIcon/img/appearance.svg

<svg xmlns="http://www.w3.org/2000/svg" width="64" height="64" viewBox="0 0 64 64">
  <g class="two" fill="#0F1126">
    <path d="M40.1929303,42.3892835 C37.7316068,43.6211918 34.961002,44.3100014 32.0476676,44.3100014 C29.1341467,44.3100014 26.3633737,43.6211036 23.9019322,42.389047 L9.70889558,50.1985309 C8.60734268,50.8047585 7.92333349,51.9616393 7.92333349,53.218281 L7.92333349,59.0800018 L56.1720016,59.0800018 L56.1720016,53.218281 C56.1720016,51.9616393 55.4879925,50.8047585 54.3866723,50.1986589 L40.1929303,42.3892835 Z M44.6672164,39.2316992 L56.760209,45.8852455 C59.4341844,47.3568386 61.0953351,50.1663819 61.0953351,53.218281 L61.0953351,61.5416686 C61.0953351,62.9012096 59.9932094,64.0033353 58.6336684,64.0033353 L5.46166674,64.0033353 C4.10212574,64.0033353 3,62.9012096 3,61.5416686 L3,53.218281 C3,50.1663819 4.6611507,47.3568386 7.33530049,45.8851495 L19.4278365,39.2314284 C16.769165,36.6800932 14.874422,33.3195735 14.1511477,29.5064133 L18.9882358,28.5889218 C20.1685005,34.8113711 25.6355841,39.3866679 32.0476676,39.3866679 C38.4597511,39.3866679 43.9268347,34.8113711 45.1070993,28.5889218 L49.9441875,29.5064133 C49.2208875,33.3197084 47.3260361,36.680331 44.6672164,39.2316992 Z M18.9882358,15.7210795 L14.1511477,14.8035881 C15.7702229,6.26769403 23.2595747,0 32.0476676,0 C40.8357604,0 48.3251122,6.26769403 49.9441875,14.8035881 L45.1070993,15.7210795 C43.9268347,9.49863029 38.4597511,4.92333349 32.0476676,4.92333349 C25.6355841,4.92333349 20.1685005,9.49863029 18.9882358,15.7210795 Z"/>
  </g>
  <g class="one" fill="#0F1126">
    <path d="M33.7708343,18.4625006 L30.3245008,18.4625006 L30.3245008,23.1396674 C30.3245008,27.0826233 27.1286232,30.2785009 23.1856673,30.2785009 L15.3083337,30.2785009 C12.9969705,30.2785009 11.1235003,28.4050307 11.1235003,26.0936675 L11.1235003,18.2163339 C11.1235003,15.9049707 12.9969705,14.0315004 15.3083337,14.0315004 L26.1396674,14.0315004 C27.6373961,14.0315004 28.9512603,14.8181417 29.6906697,16.0008338 L34.4046655,16.0008338 C35.1440749,14.8181417 36.4579391,14.0315004 37.9556678,14.0315004 L48.7870014,14.0315004 C51.0983646,14.0315004 52.9718349,15.9049707 52.9718349,18.2163339 L52.9718349,26.0936675 C52.9718349,28.4050307 51.0983646,30.2785009 48.7870014,30.2785009 L40.9096678,30.2785009 C36.9667119,30.2785009 33.7708343,27.0826233 33.7708343,23.1396674 L33.7708343,18.4625006 Z M36.232501,23.1396674 C36.232501,25.7230823 38.3262529,27.8168342 40.9096678,27.8168342 L48.7870014,27.8168342 C49.7388236,27.8168342 50.5101681,27.0454897 50.5101681,26.0936675 L50.5101681,18.2163339 C50.5101681,17.2645117 49.7388236,16.4931672 48.7870014,16.4931672 L37.9556678,16.4931672 C37.0038455,16.4931672 36.232501,17.2645117 36.232501,18.2163339 L36.232501,23.1396674 Z M13.585167,26.0936675 C13.585167,27.0454897 14.3565115,27.8168342 15.3083337,27.8168342 L23.1856673,27.8168342 C25.7690822,27.8168342 27.8628341,25.7230823 27.8628341,23.1396674 L27.8628341,18.2163339 C27.8628341,17.2645117 27.0914896,16.4931672 26.1396674,16.4931672 L15.3083337,16.4931672 C14.3565115,16.4931672 13.585167,17.2645117 13.585167,18.2163339 L13.585167,26.0936675 Z M29.0936675,33.232501 C28.413897,33.232501 27.8628341,32.6814382 27.8628341,32.0016677 C27.8628341,31.3218972 28.413897,30.7708343 29.0936675,30.7708343 L35.0016677,30.7708343 C35.6814382,30.7708343 36.232501,31.3218972 36.232501,32.0016677 C36.232501,32.6814382 35.6814382,33.232501 35.0016677,33.232501 L29.0936675,33.232501 Z"/>
  </g>
</svg>

<svg xmlns="http://www.w3.org/2000/svg" width="64" height="64"><path d="M40.193 42.39a18.16 18.16 0 0 1-8.145 1.92 18.16 18.16 0 0 1-8.146-1.921l-14.193 7.81a3.447 3.447 0 0 0-1.786 3.02v5.861h48.249v-5.862a3.447 3.447 0 0 0-1.785-3.02L40.193 42.39Zm4.474-3.158 12.093 6.653a8.37 8.37 0 0 1 4.335 7.333v8.324a2.462 2.462 0 0 1-2.461 2.461H5.462A2.462 2.462 0 0 1 3 61.542v-8.324a8.37 8.37 0 0 1 4.335-7.333l12.093-6.654a18.149 18.149 0 0 1-5.277-9.725l4.837-.917c1.18 6.222 6.648 10.798 13.06 10.798 6.412 0 11.879-4.576 13.06-10.798l4.836.917a18.149 18.149 0 0 1-5.277 9.726Zm-25.679-23.51-4.837-.918C15.771 6.268 23.26 0 32.048 0c8.788 0 16.277 6.268 17.896 14.804l-4.837.917C43.927 9.5 38.46 4.923 32.047 4.923c-6.411 0-11.878 4.576-13.059 10.798Z" class="two" fill="#0F1126"/><path d="M33.77 18.463h-3.445v4.677a7.138 7.138 0 0 1-7.14 7.139h-7.877a4.185 4.185 0 0 1-4.184-4.185v-7.878a4.185 4.185 0 0 1 4.184-4.184H26.14c1.497 0 2.811.786 3.55 1.969h4.715a4.182 4.182 0 0 1 3.55-1.97h10.832a4.185 4.185 0 0 1 4.185 4.185v7.878a4.185 4.185 0 0 1-4.185 4.185H40.91a7.138 7.138 0 0 1-7.14-7.14v-4.676Zm2.463 4.677a4.677 4.677 0 0 0 4.677 4.677h7.877c.952 0 1.723-.772 1.723-1.723v-7.878c0-.951-.771-1.723-1.723-1.723H37.956c-.952 0-1.723.772-1.723 1.723v4.924Zm-22.648 2.954c0 .951.772 1.723 1.723 1.723h7.878a4.677 4.677 0 0 0 4.677-4.677v-4.924c0-.951-.772-1.723-1.723-1.723H15.308c-.951 0-1.723.772-1.723 1.723v7.878Zm15.509 7.139a1.23 1.23 0 1 1 0-2.462h5.908a1.23 1.23 0 0 1 0 2.462h-5.908Z" class="one" fill="#0F1126"/></svg>
